governance/ui/public/councils/strategy.svg

<svg width="60" height="60" viewBox="0 0 60 60" fill="none" xmlns="http://www.w3.org/2000/svg">
<path d="M24.5641 23.9158C24.76 23.9158 24.9246 23.9925 25.0583 24.1455L26.581 26.0083L28.5843 23.5648L27.5559 22.3095C26.7812 21.4367 25.8596 21 24.7913 21H20.5576C20.522 21 20.4929 21.0113 20.4709 21.0338C20.4486 21.0563 20.4375 21.081 20.4375 21.1079V23.8079C20.4375 23.8348 20.4486 23.8599 20.4709 23.882C20.4929 23.9046 20.522 23.9158 20.5576 23.9158H24.5641Z" fill="#FFFFFF"/>
<path d="M35.2353 21C34.158 21 33.2321 21.432 32.4574 22.296L27.9563 27.8036L25.0583 31.3404C24.9156 31.4937 24.751 31.57 24.5641 31.57H20.5576C20.522 31.57 20.495 31.5813 20.4774 31.6038C20.4594 31.6263 20.4508 31.651 20.4508 31.6779V34.3779C20.4508 34.4143 20.4594 34.4433 20.4774 34.4658C20.495 34.4884 20.522 34.4996 20.5576 34.4996H24.778C25.8553 34.4996 26.7812 34.0633 27.5559 33.1901L30.0135 30.1933L32.4707 33.1901C33.2364 34.0633 34.158 34.4996 35.2353 34.4996H39.4557C39.4913 34.4996 39.5179 34.4884 39.5359 34.4658C39.5535 34.4437 39.5625 34.4186 39.5625 34.3917V31.6917C39.5625 31.6561 39.5535 31.6267 39.5359 31.6042C39.5179 31.5816 39.4913 31.5704 39.4557 31.5704H35.4492C35.2619 31.5704 35.102 31.4984 34.9683 31.3542L32.0034 27.7364L34.955 24.1455C35.0887 23.9925 35.2533 23.9158 35.4492 23.9158H39.4557C39.4913 23.9158 39.5179 23.9046 39.5359 23.882C39.5535 23.8599 39.5625 23.8348 39.5625 23.8079V21.1079C39.5625 21.0719 39.5535 21.0451 39.5359 21.0269C39.5179 21.0091 39.4913 21 39.4557 21H35.2353Z" fill="#FFFFFF"/>
<path fill-rule="evenodd" clip-rule="evenodd" d="M30.5925 9.29494C30.2105 9.15169 29.7895 9.15169 29.4075 9.29494L25.5979 10.7235C22.4443 11.9061 19.0508 12.3057 15.7087 11.888L12.2093 11.4505C11.729 11.3905 11.2461 11.5396 10.8832 11.8599C10.5203 12.1802 10.3125 12.641 10.3125 13.125V26.2192C10.3125 35.3808 15.4887 43.756 23.683 47.8532L29.2453 50.6343C29.7204 50.8719 30.2796 50.8719 30.7547 50.6343L36.317 47.8532C44.5113 43.756 49.6875 35.3808 49.6875 26.2192V13.125C49.6875 12.641 49.4797 12.1802 49.1168 11.8599C48.7539 11.5396 48.271 11.3905 47.7907 11.4505L44.2913 11.888C40.9492 12.3057 37.5557 11.9061 34.4021 10.7235L30.5925 9.29494ZM26.783 13.8836L30 12.6773L33.217 13.8836C36.8821 15.258 40.8259 15.7224 44.7099 15.2369L46.3125 15.0366V26.2192C46.3125 34.1024 41.8586 41.309 34.8076 44.8345L30 47.2383L25.1924 44.8345C18.1414 41.309 13.6875 34.1024 13.6875 26.2192V15.0366L15.2901 15.2369C19.1741 15.7224 23.1179 15.258 26.783 13.8836Z" fill="#FFFFFF"/>
</svg>

<svg width="60" height="60" fill="none" viewBox="0 0 60 60" xmlns="http://www.w3.org/2000/svg">
  <path fill="#FFF" d="M24.564 23.916q.294 0 .494.23l1.523 1.862 2.003-2.443-1.028-1.256Q26.394 21 24.79 21h-4.233a.12.12 0 0 0-.087.034.1.1 0 0 0-.034.074v2.7q0 .04.034.074a.12.12 0 0 0 .087.034zM35.235 21q-1.615 0-2.778 1.296l-4.5 5.508-2.899 3.536a.66.66 0 0 1-.494.23h-4.006q-.054 0-.08.034a.12.12 0 0 0-.027.074v2.7q0 .054.026.088.027.034.08.034h4.221q1.615 0 2.778-1.31l2.457-2.997 2.458 2.997q1.148 1.31 2.764 1.31h4.22q.054 0 .08-.034a.12.12 0 0 0 .028-.074v-2.7a.14.14 0 0 0-.027-.088q-.027-.033-.08-.034h-4.007a.63.63 0 0 1-.48-.216l-2.966-3.618 2.952-3.59a.63.63 0 0 1 .494-.23h4.007q.053 0 .08-.034a.12.12 0 0 0 .026-.074v-2.7q0-.054-.026-.081-.027-.027-.08-.027z"/>
  <path fill="#FFF" fill-rule="evenodd" d="M30.593 9.295a1.7 1.7 0 0 0-1.186 0l-3.81 1.428a20.8 20.8 0 0 1-9.888 1.165l-3.5-.437a1.688 1.688 0 0 0-1.896 1.674v13.094a24.19 24.19 0 0 0 13.37 21.634l5.562 2.781a1.69 1.69 0 0 0 1.51 0l5.562-2.78a24.19 24.19 0 0 0 13.37-21.635V13.125a1.687 1.687 0 0 0-1.896-1.674l-3.5.437a20.8 20.8 0 0 1-9.889-1.165zm-3.81 4.589L30 12.677l3.217 1.207a24.2 24.2 0 0 0 11.493 1.353l1.602-.2v11.182a20.81 20.81 0 0 1-11.504 18.615L30 47.239l-4.808-2.404A20.81 20.81 0 0 1 13.688 26.22V15.037l1.602.2c3.884.485 7.828.021 11.493-1.353" clip-rule="evenodd"/>
</svg>
